X:1
T:Youkali chorus
T:Youkali chorus
T:Kurt Weill
T:Roger Fernay
C:Kurt Weill
Z:Roger Fernay
%%score 1 2 3
L:1/8
M:2/4
K:F
V:1 treble nm="Soprano" snm="S."
V:2 treble nm="Alto" snm="A."
V:3 bass nm="Bass" snm="B."
V:1
!p! z2"^REFRAIN" z ^G | A2 A2- | A>A G/F/E/D/ | E>F E2- | E3 E | d2 d2- | d>d c/B/A/G/ | A>B A2- | %8
w: You-|ka- li,|_ C'est le pa- ys de|nos dÃ©- sirs|_ You-|ka- li,|_ C'est le bon heur, c'est|le plai- sir|
 A3 A | e2 e2- | e/d/d/^c/ c/B/B/A/ | G/FE/ D2- | D2"^mğ’‡" d2 | B/A^G/ AA | B/A^G/ AA | B/A^G/ A2- | %16
w: _ You-|ka- li,|_ C'est la terre oÃ¹ l'on quit- te|tous les sou- cis|_ C'est|dans no- tre nuit comme|une Ã©- clair- cie, l'Ã©-|toi- le qu'on suit|
 A2 f2 | e>d d2 |!p! z2 z D | d2 d2- | d/"^Solo"d/e/f/ g/f/e/d/ |"^(Solo)" d/c=B/ c2- | %22
w: _ C'est|You- ka- li|You-|ka- li,|_ C'est le res- pect de tous les|voeux Ã©- chan- gÃ©s|
 c3"^Chouer" C | B2 B2- | B/"^Solo"B/c/d/ e/d/c/B/ | B/A^G/ A2- | A2"^Choeur" !>!d2 | A>G G2- | %28
w: _ You-|ka- li,|_ C'est le pa- ys des beaux a-|mours par- ta- gÃ©s|_ C'est|l'es- pÃ© rance|
 GG/A/ B/B/A/G/ | B>A A2- | A2 d2 | A>G G2- | GG/A/ B/B/A/G/ | B>A A2- | A2 z"^mğ’‡" A | f2 f2- | %36
w: _ qui est au coeur de tous|les hu- mains|_ La|dÃ©- li- vrance|_ que nous at- tend- ons tous|pour de- main|_ You-|ka- li,|
 fe/f/ g/f/e/d/ | e>f e2- | e3 G | e2 e2- | e^d/e/ g/f/f/e/ | d>e d2- | d!p! z f2 | e>d d2- | %44
w: _ C'est _ le pa- ys de|nos dÃ©- sirs|_ You-|ka- li,|_ C'est * le bon- heur, c'est|le plai- sir|_ Mais|c'est un rÃªve,|
 d z f2 | d>c c2- | c z z2 |!pp! _d4- | d2 c2 | c4- | c z z2 | _A4- | A4 | =A4- | A z C2 | %55
w: _ u-|ne fo- lie|_|hou|_ _||||||* Il|
 A>G G2- |1 G2 A2 || G>F F2- | F z/"^Solo" A/ ^G/A/F/E/ :|2 G z!pp! =D2 || F4 | =B4 | A4 | F4 | %64
w: n'y a pas|_ de|You- ka- li|_ Et la vie nous en|* de|You|_|ka|_|
 F4 | z2 dc | =BA (3^GAB | A4 |] %68
w: li!|nn _|_ _ _ _ _||
V:2
!p! z2 z E | F2 F2- | F>F E/D/^C/B,/ | B,>B, B,2- | B,3 E | B2 B2- | B>B A/G/F/E/ | F>G F2- | %8
w: You-|ka- li,|_ C'est le pa- ys de|nos dÃ©- sirs|_ You-|ka- li,|_ C'est le bon heur, c'est|le plai- sir|
 F3 A | G2 G2- | G/F/F/E/ E/D/D/^C/ | D/DB,/ B,2- | B,2"^mğ’‡" D2 | D/FD/ FF | D/FD/ FF | %15
w: _ You-|ka- li,|_ C'est la terre oÃ¹ l'on quit- te|tous les sou- cis|_ C'est|dans no- tre nuit comme|une Ã©- clair- cie, l'Ã©-|
 ^C/EC/ E2- | E2 A2 | G>F F2 |!p! z2 z D | B2 B2- | B/ z/ z z2 | z4 | z3 C | G2 G2- | G/ z/ z z2 | %25
w: toi- le qu'on suit|_ C'est|You- ka- li|You-|ka- li,|_||You-|ka- li,|_|
 z4 | z2 !>!F2 | D>D D2- | DG/A/ B/B/A/G/ | F>F F2- | F2 F2 | D>D D2- | DG/A/ B/B/A/G/ | G>G G2- | %34
w: |C'est|l'es- pÃ© rance|_ qui est au coeur de tous|les hu- mains|_ La|dÃ©- li- vrance|_ que nous at- tend- ons tous|pour de- main|
 G2 z"^mğ’‡" A | d2 d2- | de/d/ ^c/d/A/F/ | B>B B2- | B3 G | ^c2 c2- | c^d/e/ e/d/A/A/ | A>A A2- | %42
w: _ You-|ka- li,|_ C'est * le pa- ys de|nos dÃ©- sirs,|_ You-|ka- li,|_ C'est * le bon- heur, c'est|le plai- sir|
 A!p! z d2 | B>_A A2- | A z d2 | A>A A2- | A z C2 | A>G G2- | G2 A2 | G>F F2- | F z z2 |!pp! F4- | %52
w: _ Mais|c'est un rÃªve,|_ u-|ne fo- lie|_ Il|n'y a pas|_ de|You- ka- li|_|hou|
 F4- | F4- | F z C2 | _D>D D2- |1 D2 E2 || =D>C C2- | C z z2 :|2 _D z!pp! =D2 || F4- | F2 FE | D4 | %63
w: _||* Il|n'y a pas|_ de|You- ka- li|_|* de|You|_ _ _|ka|
 =B,4 | A,4 | z2 FE | _E4- | E4 |] %68
w: _|li!|nn _|_||
V:3
!p! z2 z ^G, | A,2 A,2- | A,>A, G,/F,/E,/D,/ | E,>F, E,2- | E,3 E, | D,2 D,2- | %6
w: You-|ka- li,|_ C'est le pa- ys de|nos dÃ©- sirs|_ You-|ka- li,|
 D,>D, C,/B,,/A,,/G,,/ | A,,>B,, A,,2- | A,,3 A,, | E,2 E,2- | E,/D,/D,/^C,/ C,/B,,/B,,/A,,/ | %11
w: _ C'est le bon heur, c'est|le plai- sir|_ You-|ka- li,|_ C'est la terre oÃ¹ l'on quit- te|
 G,/F,E,/ D,2- | D,2"^mğ’‡" D2 | B,/A,^G,/ A,A, | B,/A,^G,/ A,A, | B,/A,^G,/ A,2- | A,2 F,2 | %17
w: tous les sou- cis|_ C'est|dans no- tre nuit comme|une Ã©- clair- cie, l'Ã©-|toi- le qu'on suit|_ C'est|
 E,>D, D,2 |!p! z2 z D, | D,2 D,2- | D,/ z/ z z2 | z4 | z3 C, | B,,2 B,,2- | B,,/ z/ z z2 | z4 | %26
w: You- ka- li|You-|ka- li,|_||You-|ka- li,|_||
 z2 !>!D,2 | A,,>G,, G,,2- | G,,G,,/A,,/ B,,/B,,/A,,/G,,/ | B,,>A,, A,,2- | A,,2 D,2 | %31
w: C'est|l'es- pÃ© rance|_ qui est au coeur de tous|les hu- mains|_ La|
 A,,>G,, G,,2- | G,,G,,/A,,/ B,,/B,,/A,,/G,,/ | B,,>A,, A,,2- | A,,2 z"^mğ’‡" A,, | F,2 F,2- | %36
w: dÃ©- li- vrance|_ que nous at- tend- ons tous|pour de- main|_ You-|ka- li,|
 F,E,/F,/ G,/F,/E,/D,/ | E,>F, E,2- | E,3 G,, | E,2 E,2- | E,^D,/E,/ G,/F,/F,/E,/ | D,>E, D,2- | %42
w: _ C'est _ le pa- ys de|nos dÃ©- sirs|_ You-|ka- li,|_ C'est * le bon- heur, c'est|le plai- sir|
 D,!p! z F,2 | E,>D, D,2- | D, z F,2 | D,>C, C,2- | C, z C,2 | A,>G, G,2- | G,2 A,2 | G,>F,- F,2 | %50
w: _ Mais|c'est un rÃªve,|_ u-|ne fo- lie|_ Il|n'y a pas|_ de|You- ka- li|
 F, z z2 | z4 | z4 | z4 | z4 | z4 |1 z4 || z4 | z4 :|2 z2!pp! =D,2 || F,4- | F,4 | F,4- | F,4 | %64
w: _|||||||||de|You|_|ka|_|
 F,4 | z4 | F,4- | F,4 |] %68
w: li!||nn|_|

